X: 523
T:Gallowglass, The
L:1/8
M:6/8
N:Posted to the woodenflute mailing list May 2002
S:O'Neill - 1001 Gems (236)
Z:Unknown
K:AMinor
A/B/|cBA eBd|cAA A2 A/B/|cBA e^fg|BGG G2 A/B/| cBA eBd|
cea e2d|cBA GAB|cAA A2:|e|a^ga e=fd|cAA A2 A/B/|cBA e^fg|BGG G2e|
a^ga e=fd|cAA Aed|cBA GAB|cAA A2|| e|a^ga e=fd|cAA A2 A/B/|
cBA e^fg|BGG G2e|aeg fdB|ecA B^GE|ABc dBe|cAA A2||
<end>
<start>
